X:1
T:6 Lieder, Op.1
T:Morgenständchen
T:5. Morgenständchen
T:Fanny (Mendelssohn) Hensel
T:Joseph Freiherr von Eichendorff
T:6 Lieder, Op.1
T:OpenScore (CC0)
T:OpenScore (CC0)
T:OpenScore (CC0)
T:OpenScore (CC0)
C:Fanny (Mendelssohn) Hensel
Z:Joseph Freiherr von Eichendorff
Z:OpenScore (CC0)
%%score 1 { ( 2 3 ) | ( 4 5 ) }
L:1/8
Q:1/4=100
M:4/4
K:E
V:1 treble nm="Gesang\nVoice"
V:2 treble nm="Piano"
V:3 treble 
V:4 bass 
V:5 bass 
V:1
"^Allegro molto quasi presto" z2!p! G3/2 A/!<(! A c d!<)! e |!mf! g f!>(! e d c!>)! B!p! c A | %2
w: In den Wip- feln fri- sche|Lüf- te, fern me- lod'- scher Quel- len|
 G2 z2 z4 | z2 G3/2 A/!<(! B c d!<)! e |!f! g e d c d G{B} A G | g2 z2 z2 d d | e3 e g3 (f/e/) | %7
w: Fall,|durch die Ein- sam- keit der|Klüf- te, Wal- des- laut und Vo- gel-|schall, Wal- des-|laut und Vo- gel- *|
 d2!p! f d f e d c | B F ^E F G F !>!d c | B2 z2 z4 | z2 F3/2 G/ ^A B c d | e c B ^A G F G E | %12
w: schall durch die Ein- sam- keit der|Klüf- te, Wal- des- laut und Vo- gel-|schall.|Scheu- er Träu- me Spiel- ge-|nos- sen stei- gen all beim Mor- gen-|
 D2 z2 z4 | z2 F3/2 G/ ^A B c d | f d c ^B d G A G | e2 z2 z4 | z2 c3/2 B/ A G F E | %17
w: schein,|auf des Wein- laubs schwan- ken|Spros- sen dir zum Fen- ster aus und|ein,|und wir~ nahn noch halb in|
 D F B ^A =A c f e | d z"^dim." =c3/2 B/ A =G =F E | %19
w: Träu- men, und wir thun in Klän- gen|kund, was da drau- ssen in den|
[Q:1/4=95]"^ritard." D ^F[Q:1/4=90] B ^A!p![Q:1/4=85] =A2[Q:1/4=80] =c2 | %20
w: Bäu- men singt der wei- te|
 !fermata!f3 e d2 z2[Q:1/4=100] | z8 | z2!mp! G3/2 A/ B!<(! c d e!<)! | %23
w: Früh- lings- grund,||Regt der Tag erst laut die|
!f! g!>(! f e d!>)! c!mf! B c A | G2 z2 z4 | z2 G3/2 A/ B c d e | g e d c d G{B} A G | %27
w: Schwin- gen, sind wir al- le wie- der|weit,|a- ber tief im Her- zen|klin- gen lan- ge nach noch Lust und|
 g2 z2 z2!f! d d | e3 e g3 (f/e/) | d2!p! f d f e d c | B F ^E F G F d c | B2 z2!p! (AG) (FE) | %32
w: Leid, lan- ge|nach noch Lust und *|Leid, regt der Tag erst laut die|Schwin- gen, sind wir wie- der al- le|weit; a- * ber *|
 E2 D2 (cB) (AG) | G2 F2 (fe) (dc) |[Q:1/4=92] (Bd)[Q:1/4=86] (fg) !fermata!a3 d | e2 z2 z4 | z8 | %37
w: tief im Her- * zen *|klin- gen lan- ~ ge *|nach * noch * Lust und|Leid.||
 z8 | z8 |] %39
w: ||
V:2
!p! [Be]/[Be]/[Be]/[Be]/ [Be]/[Be]/[Be]/[Be]/ [Be]/[Be]/[Be]/[Be]/ [Be]/[Be]/[Be]/[Be]/ | %1
 [Bd]/[Bd]/[Bd]/[Bd]/ [Bd]/[Bd]/[Bd]/[Bd]/ [Bd]/[Bd]/[Bd]/[Bd]/ [Bd]/[Bd]/[Bd]/[Bd]/ | %2
 [Be] [Bb]2 ed [Ba]2 d | %3
 e/[GB]/[GB]/[GB]/ [GB]/[GB]/[GB]/[GB]/!<(! [GB]/[GB]/c/[GB]/ d/[GB]/!<)!e/[GB]/ | %4
!f! gedc [Fd]G[FA]G | g"_cresc."edc [Fd]G[FA]G | %6
 [Ge]2!<(!!<(! [Af]^^f [^Aeg]3!<)!!<)! [d^f]/[ce]/ | %7
 [Bd]/[DF]/[DF]/[DF]/!p! z/ [FA]/[FA]/[FA]/ z/ [EG]/[EG]/[EG]/ z/ [E=G]/[EG]/[EG]/ | %8
 BF^EF GF d/[=EF]/c/[EF]/ | [DB] [Bb]2 f^e [Bb]2 e | f/F/F/F/ F>G ^A/[DF]/B/[DF]/ c/[DF]/d/[DF]/ | %11
 [EFe]cB^A GFGE | D [Bb]2 f^e [Bb]2 e | f/F/F/F/ F/F/F/F/ ^A/[DF]/B/[DF]/ c/[DF]/d/[DF]/ | %14
 fdc^B [Fd]G[FA]G | [Ee] [Gg]2 c^B [Gg]2 B | [Ec]/G/e/d/ c>B AG FE | DFB^A =Acfe | %18
 [Dd]/F/A/B/ =c>B"_dim." A=G=FE | D^FB^A!p! =A2 =c2 | !fermata![^Af]3 e [Bd] [Ba]2 [Ba]- | %21
"_cresc." [Ba][Ba][Bg][Bf] [Be][Bd][Bc]B |!mp! ^A!<(!=AG>A B/[EG]/c/[EG]/ d/[EG]/e/[EG]/!<)! | %23
!f! g!>(!fed!>)! c!mf!BcA | G [Bb]2 ed [Ba]2 d | %25
 e/[GB]/[GB]/[GB]/ [GB]/[GB]/[GB]/[GB]/ B/G/c/[GB]/ d/[GB]/e/[GB]/ | gedc dG"_cresc."AG | %27
 gedc!f! [Fd]G[FA]G | [Ge]2 [Af]^^f [^Aeg]3 [df]/[ce]/ | [Bd]/[DF]/[DF]/[DF]/!p! fd fedc | %30
 BF^EF GFdc | [DB]/B,/B,/D/ D/F/F/A/!p! [EA][DG][CF][B,E] | E2 D2 [Ac][GB][EA]G | %33
 G2 F2 [cf][Be][Ad][Gc] |"^ritard." !fermata![AB]6 [FAd]2 | [EGe] [ee']2 b ^a [ee']2 a | %36
 bgfe dcde | [^GB]2 [Be]"_dim."[Bg] !arpeggio![Begb] z!pp!!8va(! [be'][bg'] | %38
 !arpeggio![be'b']!8va)! z [FAd] z [EGe] z z2 |] %39
V:3
 b4 x4 | b4 x4 | x8 | x8 | G4 x4 | G4 x4 | x8 | x2 fd fedc | x8 | x8 | x8 | x8 | x8 | x8 | F4 x4 | %15
 x8 | x8 | x8 | x8 | x8 | x8 | x8 | x8 | [AB]4 F4 | x8 | x8 | G4 F4 | G4 x4 | x8 | %29
 x2 z/ [FA]/[FA]/[FA]/ z/ [EG]/[EG]/[EG]/ z/ [E=G]/[EG]/[EG]/ | x8 | x8 | A,4 x4 | D4 x4 | x8 | %35
 x8 | z/ [GB]/[GB]/[GB]/ [GB]/[GB]/[GB]/[GB]/ z/ [=G^A]/[GA]/[GA]/ [GA]/[GA]/[GA]/[GA]/ | %37
 x6!8va(! x2 | x!8va)! x7 |] %39
V:4
!ped! [EG]/[EG]/[EG]/[EG]/ [EG]/[EG]/[EG]/[EG]/ [EG]/[EG]/[EG]/[EG]/ [EG]/[EG]/[EG]/[EG]/!ped-up! | %1
 [B,,B,]/[FA]/[FA]/[FA]/ [FA]/[FA]/[FA]/[FA]/ [FA]/[FA]/[FA]/[FA]/ [FA]/[FA]/[FA]/[FA]/ | %2
 E,/[EG]/[EG]/[EG]/ [EGB]/[EGB]/[EGB]/[EGB]/ [EFA]/[EFA]/[EFA]/[EFA]/ [EFA]/[EFA]/[EFA]/[EFA]/ | %3
 E,/E/E/E/ E/E/E/E/ EEEE | %4
 C,/[CE]/[CE]/[CE]/ [CE]/[CE]/[CE]/[CE]/ [G,^B,D]/[G,B,D]/[G,B,D]/[G,B,D]/ [G,B,D]/[G,B,D]/[G,B,D]/[G,B,D]/ | %5
 C,/[CE]/[CE]/[CE]/ [CE]/[CE]/[CE]/[CE]/ [G,^B,D]/[G,B,D]/[G,B,D]/[G,B,D]/ [G,B,D]/[G,B,D]/[G,B,D]/[G,B,D]/ | %6
 [CE]/[CE]/[CE]/[CE]/ [CE]/[CE]/[CE]/[CE]/ [CE]/[CE]/[CE]/[CE]/ F,/[CE]/[CE]/[CE]/ | %7
 [B,,B,]2 [^B,,^B,]2 [C,C]2 [E,,E,]2 | %8
 F,,/[F,B,D]/[F,B,D]/[F,B,D]/ [F,B,D]/[F,B,D]/[F,B,D]/[F,B,D]/ [F,B,D]/[F,B,D]/[F,B,D]/[F,B,D]/ [F,G,][F,^A,] | %9
 [B,,B,]/[DF]/[DF]/[DF]/ [DF]/[DF]/[DF]/[DF]/ B,/[=DG]/[DG]/[DG]/ [DG]/[DG]/[DG]/[DG]/ | %10
 B,,/[B,D]/[B,D]/[B,D]/ [B,D]/[B,D]/[B,D]/[B,D]/ B,B,B,B, | %11
 [F,,F,]/[^A,C]/[A,C]/[A,C]/ [A,C]/[A,C]/[A,C]/[A,C]/ [F,^A,]/[F,A,]/[F,A,]/[F,A,]/ [F,A,]/[F,A,]/[F,A,]/[F,A,]/ | %12
 [B,,B,]/[DF]/[DF]/[DF]/ [DF]/[DF]/[DF]/[DF]/ B,/[=DG]/[DG]/[DG]/ [DG]/[DG]/[DG]/[DG]/ | %13
 B,,/[B,D]/[B,D]/[B,D]/ [B,D]/[B,D]/[B,D]/[B,D]/ B,B,B,B, | %14
 G,,/[G,^B,D]/[G,B,D]/[G,B,D]/ [G,B,D]/[G,B,D]/[G,B,D]/[G,B,D]/ [G,B,D]/[G,B,D]/[G,B,D]/[G,B,D]/ [G,B,D]/[G,B,D]/[G,B,D]/[G,B,D]/ | %15
 C,/[CE]/[CE]/[CE]/ [CE]/[CE]/[CE]/[CE]/ C,/[DF]/[DF]/[DF]/ [DF]/[DF]/[DF]/[DF]/ | %16
 [C,C]/G,/E/D/ C>B, A,G, F,E, | D,F,B,^A, =A,CFE | %18
!ped! [B,,,B,,]/F,/A,/B,/ =C>B,!ped-up! A,=G,=F,E, |"^ritard." D,^F,B,^A, =A,2 =C2 | %20
 !fermata![=CF]4 [B,,B,][K:treble]"^a tempo." [B,DA]2 [B,-DA-] | %21
 [B,DA][B,DA][B,DA][B,DA] [B,FA][B,FA][B,FA][B,G] | [B,D=G][B,DF][B,E]>F ^G/DDDD/ | %23
[K:bass] B,,/[B,DF]/[B,DF]/[B,DF]/ [B,DF]/[B,DF]/[B,DF]/[B,DF]/ [B,D]/[B,D]/[B,D]/[B,D]/ [B,D]/[B,D]/[B,D]/[B,D]/ | %24
 E,/[K:treble][EG]/[EG]/[EG]/ [EG]/[EG]/[EG]/[EG]/ [EFA]/[EFA]/[EFA]/[EFA]/ [EFA]/[EFA]/[EFA]/[EFA]/ | %25
[K:bass] E,/[K:treble]E/E/E/ E/E/E/E/ EEEE | %26
[K:bass] C,/[CE]/[CE]/[CE]/ [CE]/[CE]/[CE]/[CE]/ [G,B,^D]/[G,B,D]/[G,B,D]/[G,B,D]/ [G,B,D]/[G,B,D]/[G,B,D]/[G,B,D]/ | %27
 C,/[CE]/[CE]/[CE]/ [CE]/[CE]/[CE]/[CE]/ [G,^B,D]/[G,B,D]/[G,B,D]/[G,B,D]/ [G,B,D]/[G,B,D]/[G,B,D]/[G,B,D]/ | %28
 [CE]/[CE]/[CE]/[CE]/ [CE]/[CE]/[CE]/[CE]/ [CE]/[CE]/[CE]/[CE]/ F,/[CE]/[CE]/[CE]/ | %29
 [B,,B,]2 [^B,,^B,]2 [C,C]2 [E,,E,]2 | %30
 F,,/[F,B,D]/[F,B,D]/[F,B,D]/ [F,B,D]/[F,B,D]/[F,B,D]/[F,B,D]/ [F,B,D]/[F,B,D]/[F,B,D]/[F,B,D]/ [F,G,=E]/[F,G,E]/[F,^A,E]/[F,A,E]/ | %31
 B,,/D,/D,/F,/ F,/A,/A,/C/ CB,A,G, | F,4 DECB, | [B,,A,]4 AGFE | [DF]6 [B,,B,]2 | %35
 [E,,E,]/[K:treble] [GB]/[GB]/[GB]/ [GB]/[GB]/[GB]/[GB]/ E/[=Gc]/[Gc]/[Gc]/ [Gc]/[Gc]/[Gc]/[Gc]/ | %36
 [EGB][K:bass] E2 B, [E,^A,] E2 A, | %37
 E,/[K:treble]E/E/E/ [EG]/[EG]/[EG]/[EG]/ [EG]/[EG]/[EG]/[EG]/ [EGBe]/[EGBe]/[EGBe]/[EGBe]/ | %38
 [EGBe] z[K:bass] [B,,B,] z [E,,E,] z z2 |] %39
V:5
 x8 | x8 | x8 | x8 | x8 | x8 | x8 | x8 | x8 | x8 | x8 | x8 | x8 | x8 | x8 | x8 | x8 | x8 | x8 | %19
 x8 | x5[K:treble] x3 | x8 | x8 |[K:bass] x8 | x/[K:treble] x15/2 |[K:bass] x/[K:treble] x15/2 | %26
[K:bass] x8 | x8 | x8 | x8 | x8 | x8 | [B,,,B,,]4 x4 | x8 | !fermata![B,,,B,,]6 x2 | %35
 x/[K:treble] x15/2 | x[K:bass] x7 | x/[K:treble] x15/2 | x2[K:bass] x6 |] %39

